lib/logo_tmp/nrk-logo-nrk-super-on-dark.svg

<svg width="55" height="18" viewBox="0 0 55 18" fill="none" xmlns="http://www.w3.org/2000/svg">
<path d="M0 15.0018V3.00292H3.93719V15.0018H0ZM9.29381 4.91261L11.5581 15.0018H7.24917L4.54549 3.00292H6.96218C7.51635 2.99573 8.05406 3.19108 8.4745 3.55222C8.89562 3.89821 9.18495 4.37853 9.29381 4.91261ZM12.1495 15.0018V3.00292H16.0867V15.0018H12.1495ZM19.0605 7.56593C18.6362 7.57007 18.2188 7.45906 17.8525 7.2448C17.4912 7.03595 17.1911 6.73579 16.9823 6.37443C16.7678 6.00816 16.6568 5.59059 16.661 5.16615C16.6561 4.74429 16.7672 4.32921 16.9823 3.96626C17.1933 3.60882 17.4931 3.31192 17.8525 3.10435C18.2189 2.89033 18.6362 2.77935 19.0605 2.78321C19.4822 2.77867 19.8971 2.88976 20.2602 3.10435C20.616 3.31374 20.9127 3.61039 21.122 3.96626C21.3368 4.32931 21.4479 4.74432 21.4433 5.16615C21.4473 5.59056 21.3363 6.00806 21.122 6.37443C20.9149 6.73421 20.6179 7.03411 20.2602 7.2448C19.8971 7.45981 19.4819 7.57092 19.0599 7.56593H19.0605ZM22.0516 15.0018V3.00292H25.9892V15.0018H22.0516ZM30.9737 9.56006C30.9848 9.57171 31.0693 9.70971 31.2272 9.9741C31.3851 10.2385 31.5906 10.5765 31.8439 10.9881C32.0974 11.3995 32.3649 11.8361 32.6463 12.2978C32.9278 12.7596 33.1926 13.1962 33.4408 13.6076C33.6881 14.019 33.9697 14.4838 34.2857 15.0018H29.9598C29.6893 14.5624 29.4441 14.1653 29.2245 13.8104C29.0048 13.4555 28.7713 13.0724 28.5238 12.6612C28.2758 12.2503 28.0306 11.8504 27.7882 11.4613C27.5458 11.0722 27.3375 10.7314 27.1633 10.4389C26.9883 10.1461 26.8671 9.94895 26.7997 9.84737C26.6325 9.59528 26.5336 9.30413 26.5127 9.00238C26.5294 8.71277 26.6226 8.43281 26.7828 8.19094C26.8504 8.07828 26.9743 7.87826 27.1545 7.59096C27.3348 7.30366 27.546 6.96288 27.7882 6.56855C28.0304 6.17423 28.2756 5.77144 28.5238 5.36021C28.772 4.94898 29.0056 4.56307 29.2245 4.20254C29.4445 3.84238 29.6897 3.44242 29.9598 3.00265H34.2857L30.9396 8.46133C30.8361 8.6234 30.7777 8.81018 30.7706 9.00238C30.7818 9.20415 30.8522 9.39815 30.9731 9.56006H30.9737Z" fill="white"/>
<path d="M49.2955 0.832551C50.351 1.28019 51.3101 1.92721 52.1205 2.73815C52.9315 3.54857 53.5786 4.50786 54.0261 5.56342C54.4883 6.6532 54.7225 7.82609 54.7141 9.00981C54.7214 10.1882 54.4873 11.3557 54.0261 12.4402C53.5784 13.4957 52.9314 14.4549 52.1205 15.2654C51.3101 16.0763 50.3509 16.7233 49.2955 17.171C48.2056 17.633 47.0326 17.867 45.8489 17.8587C44.6651 17.8672 43.4921 17.6331 42.4022 17.171C41.3485 16.7246 40.3917 16.0774 39.5852 15.2654C38.7786 14.4532 38.1347 13.4942 37.6882 12.4402C37.2269 11.3557 36.9927 10.1883 37.0002 9.00981C36.9917 7.82608 37.2258 6.65316 37.6882 5.56342C38.1346 4.50931 38.7785 3.55032 39.5852 2.73815C40.3916 1.92615 41.3484 1.27891 42.4022 0.832551C43.4921 0.370377 44.6651 0.136345 45.8489 0.144879C47.0326 0.136446 48.2056 0.370474 49.2955 0.832551ZM48.6327 15.5554C49.4798 15.2006 50.2505 14.6857 50.9026 14.039C51.5546 13.3927 52.0727 12.6242 52.4271 11.7774C52.7947 10.9013 52.9807 9.95981 52.9739 9.00981C52.9806 8.0599 52.7946 7.11851 52.4271 6.24254C52.0713 5.394 51.5535 4.62297 50.9026 3.97265C50.2511 3.32104 49.4805 2.8006 48.6327 2.43961C47.7525 2.06606 46.805 1.87722 45.8489 1.88477C44.8982 1.87825 43.9563 2.0671 43.0816 2.43961C42.2336 2.80053 41.4628 3.32097 40.8112 3.97265C40.1596 4.62415 39.6392 5.39474 39.2784 6.24254C38.9058 7.11721 38.717 8.05911 38.7236 9.00981C38.7169 9.9606 38.9057 10.9026 39.2784 11.7774C39.6379 12.6234 40.1585 13.3916 40.8112 14.039C41.4634 14.6858 42.2343 15.2007 43.0816 15.5554C43.9576 15.9229 44.899 16.1089 45.8489 16.1022C46.8042 16.1099 47.7512 15.9239 48.6327 15.5554ZM41.9794 10.0043C41.8543 9.88116 41.7553 9.73404 41.6885 9.57174C41.6216 9.40944 41.5882 9.23531 41.5902 9.05979C41.586 8.87903 41.6182 8.69927 41.6851 8.53128C41.752 8.36329 41.8521 8.21052 41.9794 8.08213C42.102 7.95343 42.25 7.85161 42.414 7.78315C42.578 7.71469 42.7545 7.68108 42.9322 7.68444C43.1148 7.68093 43.2963 7.71434 43.4657 7.78268C43.6352 7.85102 43.789 7.95287 43.9181 8.08213C44.0499 8.20806 44.154 8.35999 44.2239 8.52829C44.2939 8.69659 44.3281 8.87758 44.3244 9.05979C44.3257 9.23678 44.2903 9.41212 44.2204 9.57471C44.1505 9.73729 44.0475 9.88358 43.9181 10.0043C43.789 10.1336 43.6352 10.2354 43.4657 10.3038C43.2963 10.3721 43.1148 10.4055 42.9322 10.402C42.7545 10.4054 42.578 10.3717 42.414 10.3033C42.25 10.2348 42.102 10.133 41.9794 10.0043ZM48.7153 7.10447C48.7263 7.07106 48.7487 7.07106 48.7818 7.10447L49.1795 8.18156C49.1865 8.21106 49.2035 8.23719 49.2278 8.25541C49.252 8.27363 49.2818 8.28277 49.3121 8.28126L50.4883 8.31412C50.5104 8.31412 50.5215 8.32268 50.5215 8.33925C50.5182 8.36209 50.5063 8.38282 50.4883 8.39725L49.6432 9.12635C49.6265 9.13114 49.6109 9.13935 49.5975 9.15048C49.5841 9.16161 49.5731 9.1754 49.5653 9.19098C49.5576 9.20656 49.5531 9.22359 49.5522 9.24099C49.5514 9.25839 49.5541 9.27579 49.5604 9.29206L49.8589 10.3691C49.8589 10.4244 49.8421 10.452 49.8089 10.452L48.8313 9.80574C48.767 9.78304 48.6969 9.78304 48.6327 9.80574L47.7045 10.452C47.6603 10.452 47.6438 10.4244 47.655 10.3691L47.9533 9.29206C47.956 9.25949 47.9497 9.22681 47.9351 9.19759C47.9205 9.16836 47.8981 9.14372 47.8705 9.12635L46.9925 8.39725C46.9825 8.37948 46.9768 8.35962 46.9759 8.33925C46.9759 8.32268 46.9812 8.31412 46.9925 8.31412L48.1687 8.28126C48.2013 8.28462 48.234 8.27649 48.2613 8.25829C48.2885 8.24009 48.3085 8.21295 48.3179 8.18156L48.7153 7.10447Z" fill="#00B3C7"/>
</svg>

<svg xmlns="http://www.w3.org/2000/svg" viewBox="0 0 55 18"><path fill="#fff" d="M0 15.002v-12h3.937v12H0Zm9.294-10.09 2.264 10.09H7.25l-2.704-12h2.417a2.276 2.276 0 0 1 1.513.55c.42.346.71.827.819 1.36Zm2.855 10.09v-12h3.938v12h-3.938Zm6.912-7.436a2.382 2.382 0 0 1-2.4-2.4 2.301 2.301 0 0 1 .321-1.2 2.41 2.41 0 0 1 3.278-.862c.356.21.653.506.862.862.215.363.326.778.321 1.2a2.35 2.35 0 0 1-.321 1.208 2.4 2.4 0 0 1-.862.87 2.302 2.302 0 0 1-1.2.322Zm2.99 7.436v-12h3.938v12h-3.937Zm8.923-5.442c.01.012.095.15.253.414s.364.602.617 1.014a315.936 315.936 0 0 1 1.597 2.62c.247.411.529.876.845 1.394H29.96c-.27-.44-.516-.837-.736-1.192-.22-.354-.453-.738-.7-1.149-.248-.41-.493-.81-.736-1.2-.242-.389-.45-.73-.625-1.022-.175-.293-.296-.49-.363-.592a1.747 1.747 0 0 1-.287-.845c.016-.29.11-.57.27-.811.067-.113.191-.313.371-.6s.392-.628.634-1.022c.242-.395.488-.798.736-1.209l.7-1.157.736-1.2h4.326L30.94 8.46a1.08 1.08 0 0 0-.17.541c.012.202.082.396.203.558Z"/><path fill="#00B3C7" d="M49.295.833a8.914 8.914 0 0 1 4.731 4.73 8.67 8.67 0 0 1 .688 3.447 8.63 8.63 0 0 1-.688 3.43 8.918 8.918 0 0 1-4.73 4.731 8.676 8.676 0 0 1-3.447.688 8.67 8.67 0 0 1-3.447-.688 8.82 8.82 0 0 1-2.817-1.906 8.98 8.98 0 0 1-1.897-2.825A8.624 8.624 0 0 1 37 9.01a8.664 8.664 0 0 1 .688-3.447 8.976 8.976 0 0 1 1.897-2.825A8.816 8.816 0 0 1 42.402.833 8.669 8.669 0 0 1 45.85.145a8.672 8.672 0 0 1 3.447.688Zm-.662 14.722a7.142 7.142 0 0 0 2.27-1.516 7.023 7.023 0 0 0 2.071-5.03 7.025 7.025 0 0 0-.547-2.766 7.077 7.077 0 0 0-1.524-2.27 7.197 7.197 0 0 0-2.27-1.533 6.985 6.985 0 0 0-2.784-.555 6.941 6.941 0 0 0-2.767.555 7.195 7.195 0 0 0-3.804 3.803 6.938 6.938 0 0 0-.554 2.767c-.007.95.182 1.893.554 2.767.36.846.88 1.615 1.533 2.262a7.14 7.14 0 0 0 2.27 1.516 7.025 7.025 0 0 0 2.768.547 7.07 7.07 0 0 0 2.784-.547Zm-6.654-5.55a1.303 1.303 0 0 1-.389-.945 1.344 1.344 0 0 1 .39-.978 1.283 1.283 0 0 1 .952-.398 1.356 1.356 0 0 1 .986.398 1.314 1.314 0 0 1 .406.978 1.28 1.28 0 0 1-.406.944 1.356 1.356 0 0 1-.986.398 1.283 1.283 0 0 1-.953-.398Zm6.736-2.9c.011-.034.034-.034.067 0l.398 1.077a.13.13 0 0 0 .132.1l1.176.032c.022 0 .034.009.034.025a.091.091 0 0 1-.034.058l-.845.73a.126.126 0 0 0-.083.165l.299 1.077c0 .055-.017.083-.05.083l-.978-.646a.298.298 0 0 0-.198 0l-.928.646c-.045 0-.061-.028-.05-.083l.298-1.077a.178.178 0 0 0-.083-.166l-.877-.729a.13.13 0 0 1-.017-.058c0-.016.005-.025.017-.025l1.176-.033a.14.14 0 0 0 .149-.1l.397-1.077Z"/></svg>
